( Made using CamBam - http://www.cambam.co.uk )
( plate 6/19/2015 12:13:07 PM )
( T0 : 0.125 )
G20 G90 G64 G40
G0 Z0.125
( T0 : 0.125 )
T0 M6
( Profile2 )
G17
M3 S1000
G0 X2.0625 Y0.625
G0 Z0.0313
G1 F10.0 Z-0.015
G3 F80.0 X1.9688 Y0.6791 I-0.0625 J0.0
G3 Y0.5709 I0.0313 J-0.0541
G3 X2.0625 Y0.625 I0.0313 J0.0541
G1 F10.0 Z-0.03
G3 F80.0 X1.9688 Y0.6791 I-0.0625 J0.0
G3 Y0.5709 I0.0313 J-0.0541
G3 X2.0625 Y0.625 I0.0313 J0.0541
G1 F10.0 Z-0.045
G3 F80.0 X1.9688 Y0.6791 I-0.0625 J0.0
G3 Y0.5709 I0.0313 J-0.0541
G3 X2.0625 Y0.625 I0.0313 J0.0541
G1 F10.0 Z-0.06
G3 F80.0 X1.9688 Y0.6791 I-0.0625 J0.0
G3 Y0.5709 I0.0313 J-0.0541
G3 X2.0625 Y0.625 I0.0313 J0.0541
G1 F10.0 Z-0.075
G3 F80.0 X1.9688 Y0.6791 I-0.0625 J0.0
G3 Y0.5709 I0.0313 J-0.0541
G3 X2.0625 Y0.625 I0.0313 J0.0541
G1 F10.0 Z-0.09
G3 F80.0 X1.9688 Y0.6791 I-0.0625 J0.0
G3 Y0.5709 I0.0313 J-0.0541
G3 X2.0625 Y0.625 I0.0313 J0.0541
G1 F10.0 Z-0.105
G3 F80.0 X1.9688 Y0.6791 I-0.0625 J0.0
G3 Y0.5709 I0.0313 J-0.0541
G3 X2.0625 Y0.625 I0.0313 J0.0541
G1 F10.0 Z-0.12
G3 F80.0 X1.9688 Y0.6791 I-0.0625 J0.0
G3 Y0.5709 I0.0313 J-0.0541
G3 X2.0625 Y0.625 I0.0313 J0.0541
G1 F10.0 Z-0.135
G3 F80.0 X1.9688 Y0.6791 I-0.0625 J0.0
G3 Y0.5709 I0.0313 J-0.0541
G3 X2.0625 Y0.625 I0.0313 J0.0541
G1 F10.0 Z-0.15
G3 F80.0 X1.9688 Y0.6791 I-0.0625 J0.0
G3 Y0.5709 I0.0313 J-0.0541
G3 X2.0625 Y0.625 I0.0313 J0.0541
G0 Z0.125
G0 X0.6702 Y1.9568
G0 Z0.0313
G1 F10.0 Z-0.015
G3 F80.0 X0.6875 Y2.0 I-0.0452 J0.0432
G3 X0.5938 Y2.0541 I-0.0625 J0.0
G3 Y1.9459 I0.0312 J-0.0541
G3 X0.6702 Y1.9568 I0.0313 J0.0541
G1 F10.0 Z-0.03
G3 F80.0 X0.6875 Y2.0 I-0.0452 J0.0432
G3 X0.5938 Y2.0541 I-0.0625 J0.0
G3 Y1.9459 I0.0312 J-0.0541
G3 X0.6702 Y1.9568 I0.0313 J0.0541
G1 F10.0 Z-0.045
G3 F80.0 X0.6875 Y2.0 I-0.0452 J0.0432
G3 X0.5938 Y2.0541 I-0.0625 J0.0
G3 Y1.9459 I0.0312 J-0.0541
G3 X0.6702 Y1.9568 I0.0313 J0.0541
G1 F10.0 Z-0.06
G3 F80.0 X0.6875 Y2.0 I-0.0452 J0.0432
G3 X0.5938 Y2.0541 I-0.0625 J0.0
G3 Y1.9459 I0.0312 J-0.0541
G3 X0.6702 Y1.9568 I0.0313 J0.0541
G1 F10.0 Z-0.075
G3 F80.0 X0.6875 Y2.0 I-0.0452 J0.0432
G3 X0.5938 Y2.0541 I-0.0625 J0.0
G3 Y1.9459 I0.0312 J-0.0541
G3 X0.6702 Y1.9568 I0.0313 J0.0541
G1 F10.0 Z-0.09
G3 F80.0 X0.6875 Y2.0 I-0.0452 J0.0432
G3 X0.5938 Y2.0541 I-0.0625 J0.0
G3 Y1.9459 I0.0312 J-0.0541
G3 X0.6702 Y1.9568 I0.0313 J0.0541
G1 F10.0 Z-0.105
G3 F80.0 X0.6875 Y2.0 I-0.0452 J0.0432
G3 X0.5938 Y2.0541 I-0.0625 J0.0
G3 Y1.9459 I0.0312 J-0.0541
G3 X0.6702 Y1.9568 I0.0313 J0.0541
G1 F10.0 Z-0.12
G3 F80.0 X0.6875 Y2.0 I-0.0452 J0.0432
G3 X0.5938 Y2.0541 I-0.0625 J0.0
G3 Y1.9459 I0.0312 J-0.0541
G3 X0.6702 Y1.9568 I0.0313 J0.0541
G1 F10.0 Z-0.135
G3 F80.0 X0.6875 Y2.0 I-0.0452 J0.0432
G3 X0.5938 Y2.0541 I-0.0625 J0.0
G3 Y1.9459 I0.0312 J-0.0541
G3 X0.6702 Y1.9568 I0.0313 J0.0541
G1 F10.0 Z-0.15
G3 F80.0 X0.6875 Y2.0 I-0.0452 J0.0432
G3 X0.5938 Y2.0541 I-0.0625 J0.0
G3 Y1.9459 I0.0312 J-0.0541
G3 X0.6702 Y1.9568 I0.0313 J0.0541
G0 Z0.125
G0 X0.6261 Y4.5625
G0 Z0.0313
G1 F10.0 Z-0.015
G3 F80.0 X0.6875 Y4.625 I-0.0011 J0.0625
G3 X0.5938 Y4.6791 I-0.0625 J0.0
G3 Y4.5709 I0.0313 J-0.0541
G3 X0.6261 Y4.5625 I0.0312 J0.0541
G1 F10.0 Z-0.03
G3 F80.0 X0.6875 Y4.625 I-0.0011 J0.0625
G3 X0.5938 Y4.6791 I-0.0625 J0.0
G3 Y4.5709 I0.0313 J-0.0541
G3 X0.6261 Y4.5625 I0.0312 J0.0541
G1 F10.0 Z-0.045
G3 F80.0 X0.6875 Y4.625 I-0.0011 J0.0625
G3 X0.5938 Y4.6791 I-0.0625 J0.0
G3 Y4.5709 I0.0313 J-0.0541
G3 X0.6261 Y4.5625 I0.0312 J0.0541
G1 F10.0 Z-0.06
G3 F80.0 X0.6875 Y4.625 I-0.0011 J0.0625
G3 X0.5938 Y4.6791 I-0.0625 J0.0
G3 Y4.5709 I0.0313 J-0.0541
G3 X0.6261 Y4.5625 I0.0312 J0.0541
G1 F10.0 Z-0.075
G3 F80.0 X0.6875 Y4.625 I-0.0011 J0.0625
G3 X0.5938 Y4.6791 I-0.0625 J0.0
G3 Y4.5709 I0.0313 J-0.0541
G3 X0.6261 Y4.5625 I0.0312 J0.0541
G1 F10.0 Z-0.09
G3 F80.0 X0.6875 Y4.625 I-0.0011 J0.0625
G3 X0.5938 Y4.6791 I-0.0625 J0.0
G3 Y4.5709 I0.0313 J-0.0541
G3 X0.6261 Y4.5625 I0.0312 J0.0541
G1 F10.0 Z-0.105
G3 F80.0 X0.6875 Y4.625 I-0.0011 J0.0625
G3 X0.5938 Y4.6791 I-0.0625 J0.0
G3 Y4.5709 I0.0313 J-0.0541
G3 X0.6261 Y4.5625 I0.0312 J0.0541
G1 F10.0 Z-0.12
G3 F80.0 X0.6875 Y4.625 I-0.0011 J0.0625
G3 X0.5938 Y4.6791 I-0.0625 J0.0
G3 Y4.5709 I0.0313 J-0.0541
G3 X0.6261 Y4.5625 I0.0312 J0.0541
G1 F10.0 Z-0.135
G3 F80.0 X0.6875 Y4.625 I-0.0011 J0.0625
G3 X0.5938 Y4.6791 I-0.0625 J0.0
G3 Y4.5709 I0.0313 J-0.0541
G3 X0.6261 Y4.5625 I0.0312 J0.0541
G1 F10.0 Z-0.15
G3 F80.0 X0.6875 Y4.625 I-0.0011 J0.0625
G3 X0.5938 Y4.6791 I-0.0625 J0.0
G3 Y4.5709 I0.0313 J-0.0541
G3 X0.6261 Y4.5625 I0.0312 J0.0541
G0 Z0.125
G0 X0.625 Y7.3125
G0 Z0.0313
G1 F10.0 Z-0.015
G3 F80.0 X0.6875 Y7.375 I0.0 J0.0625
G3 X0.5938 Y7.4291 I-0.0625 J0.0
G3 Y7.3209 I0.0313 J-0.0541
G3 X0.625 Y7.3125 I0.0312 J0.0541
G1 F10.0 Z-0.03
G3 F80.0 X0.6875 Y7.375 I0.0 J0.0625
G3 X0.5938 Y7.4291 I-0.0625 J0.0
G3 Y7.3209 I0.0313 J-0.0541
G3 X0.625 Y7.3125 I0.0312 J0.0541
G1 F10.0 Z-0.045
G3 F80.0 X0.6875 Y7.375 I0.0 J0.0625
G3 X0.5938 Y7.4291 I-0.0625 J0.0
G3 Y7.3209 I0.0313 J-0.0541
G3 X0.625 Y7.3125 I0.0312 J0.0541
G1 F10.0 Z-0.06
G3 F80.0 X0.6875 Y7.375 I0.0 J0.0625
G3 X0.5938 Y7.4291 I-0.0625 J0.0
G3 Y7.3209 I0.0313 J-0.0541
G3 X0.625 Y7.3125 I0.0312 J0.0541
G1 F10.0 Z-0.075
G3 F80.0 X0.6875 Y7.375 I0.0 J0.0625
G3 X0.5938 Y7.4291 I-0.0625 J0.0
G3 Y7.3209 I0.0313 J-0.0541
G3 X0.625 Y7.3125 I0.0312 J0.0541
G1 F10.0 Z-0.09
G3 F80.0 X0.6875 Y7.375 I0.0 J0.0625
G3 X0.5938 Y7.4291 I-0.0625 J0.0
G3 Y7.3209 I0.0313 J-0.0541
G3 X0.625 Y7.3125 I0.0312 J0.0541
G1 F10.0 Z-0.105
G3 F80.0 X0.6875 Y7.375 I0.0 J0.0625
G3 X0.5938 Y7.4291 I-0.0625 J0.0
G3 Y7.3209 I0.0313 J-0.0541
G3 X0.625 Y7.3125 I0.0312 J0.0541
G1 F10.0 Z-0.12
G3 F80.0 X0.6875 Y7.375 I0.0 J0.0625
G3 X0.5938 Y7.4291 I-0.0625 J0.0
G3 Y7.3209 I0.0313 J-0.0541
G3 X0.625 Y7.3125 I0.0312 J0.0541
G1 F10.0 Z-0.135
G3 F80.0 X0.6875 Y7.375 I0.0 J0.0625
G3 X0.5938 Y7.4291 I-0.0625 J0.0
G3 Y7.3209 I0.0313 J-0.0541
G3 X0.625 Y7.3125 I0.0312 J0.0541
G1 F10.0 Z-0.15
G3 F80.0 X0.6875 Y7.375 I0.0 J0.0625
G3 X0.5938 Y7.4291 I-0.0625 J0.0
G3 Y7.3209 I0.0313 J-0.0541
G3 X0.625 Y7.3125 I0.0312 J0.0541
G0 Z0.125
G0 Y9.9375
G0 Z0.0313
G1 F10.0 Z-0.015
G3 F80.0 X0.6875 Y10.0 I0.0 J0.0625
G3 X0.5938 Y10.0541 I-0.0625 J0.0
G3 Y9.9459 I0.0312 J-0.0541
G3 X0.625 Y9.9375 I0.0313 J0.0541
G1 F10.0 Z-0.03
G3 F80.0 X0.6875 Y10.0 I0.0 J0.0625
G3 X0.5938 Y10.0541 I-0.0625 J0.0
G3 Y9.9459 I0.0312 J-0.0541
G3 X0.625 Y9.9375 I0.0313 J0.0541
G1 F10.0 Z-0.045
G3 F80.0 X0.6875 Y10.0 I0.0 J0.0625
G3 X0.5938 Y10.0541 I-0.0625 J0.0
G3 Y9.9459 I0.0312 J-0.0541
G3 X0.625 Y9.9375 I0.0313 J0.0541
G1 F10.0 Z-0.06
G3 F80.0 X0.6875 Y10.0 I0.0 J0.0625
G3 X0.5938 Y10.0541 I-0.0625 J0.0
G3 Y9.9459 I0.0312 J-0.0541
G3 X0.625 Y9.9375 I0.0313 J0.0541
G1 F10.0 Z-0.075
G3 F80.0 X0.6875 Y10.0 I0.0 J0.0625
G3 X0.5938 Y10.0541 I-0.0625 J0.0
G3 Y9.9459 I0.0312 J-0.0541
G3 X0.625 Y9.9375 I0.0313 J0.0541
G1 F10.0 Z-0.09
G3 F80.0 X0.6875 Y10.0 I0.0 J0.0625
G3 X0.5938 Y10.0541 I-0.0625 J0.0
G3 Y9.9459 I0.0312 J-0.0541
G3 X0.625 Y9.9375 I0.0313 J0.0541
G1 F10.0 Z-0.105
G3 F80.0 X0.6875 Y10.0 I0.0 J0.0625
G3 X0.5938 Y10.0541 I-0.0625 J0.0
G3 Y9.9459 I0.0312 J-0.0541
G3 X0.625 Y9.9375 I0.0313 J0.0541
G1 F10.0 Z-0.12
G3 F80.0 X0.6875 Y10.0 I0.0 J0.0625
G3 X0.5938 Y10.0541 I-0.0625 J0.0
G3 Y9.9459 I0.0312 J-0.0541
G3 X0.625 Y9.9375 I0.0313 J0.0541
G1 F10.0 Z-0.135
G3 F80.0 X0.6875 Y10.0 I0.0 J0.0625
G3 X0.5938 Y10.0541 I-0.0625 J0.0
G3 Y9.9459 I0.0312 J-0.0541
G3 X0.625 Y9.9375 I0.0313 J0.0541
G1 F10.0 Z-0.15
G3 F80.0 X0.6875 Y10.0 I0.0 J0.0625
G3 X0.5938 Y10.0541 I-0.0625 J0.0
G3 Y9.9459 I0.0312 J-0.0541
G3 X0.625 Y9.9375 I0.0313 J0.0541
G0 Z0.125
G0 X1.9568 Y11.3298
G0 Z0.0313
G1 F10.0 Z-0.015
G3 F80.0 X1.9688 Y11.3209 I0.0432 J0.0452
G3 X2.0625 Y11.375 I0.0313 J0.0541
G3 X1.9688 Y11.4291 I-0.0625 J0.0
G3 X1.9568 Y11.3298 I0.0312 J-0.0541
G1 F10.0 Z-0.03
G3 F80.0 X1.9688 Y11.3209 I0.0432 J0.0452
G3 X2.0625 Y11.375 I0.0313 J0.0541
G3 X1.9688 Y11.4291 I-0.0625 J0.0
G3 X1.9568 Y11.3298 I0.0312 J-0.0541
G1 F10.0 Z-0.045
G3 F80.0 X1.9688 Y11.3209 I0.0432 J0.0452
G3 X2.0625 Y11.375 I0.0313 J0.0541
G3 X1.9688 Y11.4291 I-0.0625 J0.0
G3 X1.9568 Y11.3298 I0.0312 J-0.0541
G1 F10.0 Z-0.06
G3 F80.0 X1.9688 Y11.3209 I0.0432 J0.0452
G3 X2.0625 Y11.375 I0.0313 J0.0541
G3 X1.9688 Y11.4291 I-0.0625 J0.0
G3 X1.9568 Y11.3298 I0.0312 J-0.0541
G1 F10.0 Z-0.075
G3 F80.0 X1.9688 Y11.3209 I0.0432 J0.0452
G3 X2.0625 Y11.375 I0.0313 J0.0541
G3 X1.9688 Y11.4291 I-0.0625 J0.0
G3 X1.9568 Y11.3298 I0.0312 J-0.0541
G1 F10.0 Z-0.09
G3 F80.0 X1.9688 Y11.3209 I0.0432 J0.0452
G3 X2.0625 Y11.375 I0.0313 J0.0541
G3 X1.9688 Y11.4291 I-0.0625 J0.0
G3 X1.9568 Y11.3298 I0.0312 J-0.0541
G1 F10.0 Z-0.105
G3 F80.0 X1.9688 Y11.3209 I0.0432 J0.0452
G3 X2.0625 Y11.375 I0.0313 J0.0541
G3 X1.9688 Y11.4291 I-0.0625 J0.0
G3 X1.9568 Y11.3298 I0.0312 J-0.0541
G1 F10.0 Z-0.12
G3 F80.0 X1.9688 Y11.3209 I0.0432 J0.0452
G3 X2.0625 Y11.375 I0.0313 J0.0541
G3 X1.9688 Y11.4291 I-0.0625 J0.0
G3 X1.9568 Y11.3298 I0.0312 J-0.0541
G1 F10.0 Z-0.135
G3 F80.0 X1.9688 Y11.3209 I0.0432 J0.0452
G3 X2.0625 Y11.375 I0.0313 J0.0541
G3 X1.9688 Y11.4291 I-0.0625 J0.0
G3 X1.9568 Y11.3298 I0.0312 J-0.0541
G1 F10.0 Z-0.15
G3 F80.0 X1.9688 Y11.3209 I0.0432 J0.0452
G3 X2.0625 Y11.375 I0.0313 J0.0541
G3 X1.9688 Y11.4291 I-0.0625 J0.0
G3 X1.9568 Y11.3298 I0.0312 J-0.0541
G0 Z0.125
G0 X4.5625 Y11.3739
G0 Z0.0313
G1 F10.0 Z-0.015
G3 F80.0 X4.5938 Y11.3209 I0.0625 J0.0011
G3 X4.6875 Y11.375 I0.0313 J0.0541
G3 X4.5938 Y11.4291 I-0.0625 J0.0
G3 X4.5625 Y11.3739 I0.0312 J-0.0541
G1 F10.0 Z-0.03
G3 F80.0 X4.5938 Y11.3209 I0.0625 J0.0011
G3 X4.6875 Y11.375 I0.0313 J0.0541
G3 X4.5938 Y11.4291 I-0.0625 J0.0
G3 X4.5625 Y11.3739 I0.0312 J-0.0541
G1 F10.0 Z-0.045
G3 F80.0 X4.5938 Y11.3209 I0.0625 J0.0011
G3 X4.6875 Y11.375 I0.0313 J0.0541
G3 X4.5938 Y11.4291 I-0.0625 J0.0
G3 X4.5625 Y11.3739 I0.0312 J-0.0541
G1 F10.0 Z-0.06
G3 F80.0 X4.5938 Y11.3209 I0.0625 J0.0011
G3 X4.6875 Y11.375 I0.0313 J0.0541
G3 X4.5938 Y11.4291 I-0.0625 J0.0
G3 X4.5625 Y11.3739 I0.0312 J-0.0541
G1 F10.0 Z-0.075
G3 F80.0 X4.5938 Y11.3209 I0.0625 J0.0011
G3 X4.6875 Y11.375 I0.0313 J0.0541
G3 X4.5938 Y11.4291 I-0.0625 J0.0
G3 X4.5625 Y11.3739 I0.0312 J-0.0541
G1 F10.0 Z-0.09
G3 F80.0 X4.5938 Y11.3209 I0.0625 J0.0011
G3 X4.6875 Y11.375 I0.0313 J0.0541
G3 X4.5938 Y11.4291 I-0.0625 J0.0
G3 X4.5625 Y11.3739 I0.0312 J-0.0541
G1 F10.0 Z-0.105
G3 F80.0 X4.5938 Y11.3209 I0.0625 J0.0011
G3 X4.6875 Y11.375 I0.0313 J0.0541
G3 X4.5938 Y11.4291 I-0.0625 J0.0
G3 X4.5625 Y11.3739 I0.0312 J-0.0541
G1 F10.0 Z-0.12
G3 F80.0 X4.5938 Y11.3209 I0.0625 J0.0011
G3 X4.6875 Y11.375 I0.0313 J0.0541
G3 X4.5938 Y11.4291 I-0.0625 J0.0
G3 X4.5625 Y11.3739 I0.0312 J-0.0541
G1 F10.0 Z-0.135
G3 F80.0 X4.5938 Y11.3209 I0.0625 J0.0011
G3 X4.6875 Y11.375 I0.0313 J0.0541
G3 X4.5938 Y11.4291 I-0.0625 J0.0
G3 X4.5625 Y11.3739 I0.0312 J-0.0541
G1 F10.0 Z-0.15
G3 F80.0 X4.5938 Y11.3209 I0.0625 J0.0011
G3 X4.6875 Y11.375 I0.0313 J0.0541
G3 X4.5938 Y11.4291 I-0.0625 J0.0
G3 X4.5625 Y11.3739 I0.0312 J-0.0541
G0 Z0.125
G0 X7.3125 Y11.375
G0 Z0.0313
G1 F10.0 Z-0.015
G3 F80.0 X7.3438 Y11.3209 I0.0625 J0.0
G3 X7.4375 Y11.375 I0.0313 J0.0541
G3 X7.3438 Y11.4291 I-0.0625 J0.0
G3 X7.3125 Y11.375 I0.0312 J-0.0541
G1 F10.0 Z-0.03
G3 F80.0 X7.3438 Y11.3209 I0.0625 J0.0
G3 X7.4375 Y11.375 I0.0313 J0.0541
G3 X7.3438 Y11.4291 I-0.0625 J0.0
G3 X7.3125 Y11.375 I0.0312 J-0.0541
G1 F10.0 Z-0.045
G3 F80.0 X7.3438 Y11.3209 I0.0625 J0.0
G3 X7.4375 Y11.375 I0.0313 J0.0541
G3 X7.3438 Y11.4291 I-0.0625 J0.0
G3 X7.3125 Y11.375 I0.0312 J-0.0541
G1 F10.0 Z-0.06
G3 F80.0 X7.3438 Y11.3209 I0.0625 J0.0
G3 X7.4375 Y11.375 I0.0313 J0.0541
G3 X7.3438 Y11.4291 I-0.0625 J0.0
G3 X7.3125 Y11.375 I0.0312 J-0.0541
G1 F10.0 Z-0.075
G3 F80.0 X7.3438 Y11.3209 I0.0625 J0.0
G3 X7.4375 Y11.375 I0.0313 J0.0541
G3 X7.3438 Y11.4291 I-0.0625 J0.0
G3 X7.3125 Y11.375 I0.0312 J-0.0541
G1 F10.0 Z-0.09
G3 F80.0 X7.3438 Y11.3209 I0.0625 J0.0
G3 X7.4375 Y11.375 I0.0313 J0.0541
G3 X7.3438 Y11.4291 I-0.0625 J0.0
G3 X7.3125 Y11.375 I0.0312 J-0.0541
G1 F10.0 Z-0.105
G3 F80.0 X7.3438 Y11.3209 I0.0625 J0.0
G3 X7.4375 Y11.375 I0.0313 J0.0541
G3 X7.3438 Y11.4291 I-0.0625 J0.0
G3 X7.3125 Y11.375 I0.0312 J-0.0541
G1 F10.0 Z-0.12
G3 F80.0 X7.3438 Y11.3209 I0.0625 J0.0
G3 X7.4375 Y11.375 I0.0313 J0.0541
G3 X7.3438 Y11.4291 I-0.0625 J0.0
G3 X7.3125 Y11.375 I0.0312 J-0.0541
G1 F10.0 Z-0.135
G3 F80.0 X7.3438 Y11.3209 I0.0625 J0.0
G3 X7.4375 Y11.375 I0.0313 J0.0541
G3 X7.3438 Y11.4291 I-0.0625 J0.0
G3 X7.3125 Y11.375 I0.0312 J-0.0541
G1 F10.0 Z-0.15
G3 F80.0 X7.3438 Y11.3209 I0.0625 J0.0
G3 X7.4375 Y11.375 I0.0313 J0.0541
G3 X7.3438 Y11.4291 I-0.0625 J0.0
G3 X7.3125 Y11.375 I0.0312 J-0.0541
G0 Z0.125
G0 X9.9375
G0 Z0.0313
G1 F10.0 Z-0.015
G3 F80.0 X9.9688 Y11.3209 I0.0625 J0.0
G3 X10.0625 Y11.375 I0.0313 J0.0541
G3 X9.9688 Y11.4291 I-0.0625 J0.0
G3 X9.9375 Y11.375 I0.0313 J-0.0541
G1 F10.0 Z-0.03
G3 F80.0 X9.9688 Y11.3209 I0.0625 J0.0
G3 X10.0625 Y11.375 I0.0313 J0.0541
G3 X9.9688 Y11.4291 I-0.0625 J0.0
G3 X9.9375 Y11.375 I0.0313 J-0.0541
G1 F10.0 Z-0.045
G3 F80.0 X9.9688 Y11.3209 I0.0625 J0.0
G3 X10.0625 Y11.375 I0.0313 J0.0541
G3 X9.9688 Y11.4291 I-0.0625 J0.0
G3 X9.9375 Y11.375 I0.0313 J-0.0541
G1 F10.0 Z-0.06
G3 F80.0 X9.9688 Y11.3209 I0.0625 J0.0
G3 X10.0625 Y11.375 I0.0313 J0.0541
G3 X9.9688 Y11.4291 I-0.0625 J0.0
G3 X9.9375 Y11.375 I0.0313 J-0.0541
G1 F10.0 Z-0.075
G3 F80.0 X9.9688 Y11.3209 I0.0625 J0.0
G3 X10.0625 Y11.375 I0.0313 J0.0541
G3 X9.9688 Y11.4291 I-0.0625 J0.0
G3 X9.9375 Y11.375 I0.0313 J-0.0541
G1 F10.0 Z-0.09
G3 F80.0 X9.9688 Y11.3209 I0.0625 J0.0
G3 X10.0625 Y11.375 I0.0313 J0.0541
G3 X9.9688 Y11.4291 I-0.0625 J0.0
G3 X9.9375 Y11.375 I0.0313 J-0.0541
G1 F10.0 Z-0.105
G3 F80.0 X9.9688 Y11.3209 I0.0625 J0.0
G3 X10.0625 Y11.375 I0.0313 J0.0541
G3 X9.9688 Y11.4291 I-0.0625 J0.0
G3 X9.9375 Y11.375 I0.0313 J-0.0541
G1 F10.0 Z-0.12
G3 F80.0 X9.9688 Y11.3209 I0.0625 J0.0
G3 X10.0625 Y11.375 I0.0313 J0.0541
G3 X9.9688 Y11.4291 I-0.0625 J0.0
G3 X9.9375 Y11.375 I0.0313 J-0.0541
G1 F10.0 Z-0.135
G3 F80.0 X9.9688 Y11.3209 I0.0625 J0.0
G3 X10.0625 Y11.375 I0.0313 J0.0541
G3 X9.9688 Y11.4291 I-0.0625 J0.0
G3 X9.9375 Y11.375 I0.0313 J-0.0541
G1 F10.0 Z-0.15
G3 F80.0 X9.9688 Y11.3209 I0.0625 J0.0
G3 X10.0625 Y11.375 I0.0313 J0.0541
G3 X9.9688 Y11.4291 I-0.0625 J0.0
G3 X9.9375 Y11.375 I0.0313 J-0.0541
G0 Z0.125
G0 X11.3298 Y10.0432
G0 Z0.0313
G1 F10.0 Z-0.015
G3 F80.0 X11.3438 Y9.9459 I0.0452 J-0.0432
G3 X11.4375 Y10.0 I0.0313 J0.0541
G3 X11.3438 Y10.0541 I-0.0625 J0.0
G3 X11.3298 Y10.0432 I0.0313 J-0.0541
G1 F10.0 Z-0.03
G3 F80.0 X11.3438 Y9.9459 I0.0452 J-0.0432
G3 X11.4375 Y10.0 I0.0313 J0.0541
G3 X11.3438 Y10.0541 I-0.0625 J0.0
G3 X11.3298 Y10.0432 I0.0313 J-0.0541
G1 F10.0 Z-0.045
G3 F80.0 X11.3438 Y9.9459 I0.0452 J-0.0432
G3 X11.4375 Y10.0 I0.0313 J0.0541
G3 X11.3438 Y10.0541 I-0.0625 J0.0
G3 X11.3298 Y10.0432 I0.0313 J-0.0541
G1 F10.0 Z-0.06
G3 F80.0 X11.3438 Y9.9459 I0.0452 J-0.0432
G3 X11.4375 Y10.0 I0.0313 J0.0541
G3 X11.3438 Y10.0541 I-0.0625 J0.0
G3 X11.3298 Y10.0432 I0.0313 J-0.0541
G1 F10.0 Z-0.075
G3 F80.0 X11.3438 Y9.9459 I0.0452 J-0.0432
G3 X11.4375 Y10.0 I0.0313 J0.0541
G3 X11.3438 Y10.0541 I-0.0625 J0.0
G3 X11.3298 Y10.0432 I0.0313 J-0.0541
G1 F10.0 Z-0.09
G3 F80.0 X11.3438 Y9.9459 I0.0452 J-0.0432
G3 X11.4375 Y10.0 I0.0313 J0.0541
G3 X11.3438 Y10.0541 I-0.0625 J0.0
G3 X11.3298 Y10.0432 I0.0313 J-0.0541
G1 F10.0 Z-0.105
G3 F80.0 X11.3438 Y9.9459 I0.0452 J-0.0432
G3 X11.4375 Y10.0 I0.0313 J0.0541
G3 X11.3438 Y10.0541 I-0.0625 J0.0
G3 X11.3298 Y10.0432 I0.0313 J-0.0541
G1 F10.0 Z-0.12
G3 F80.0 X11.3438 Y9.9459 I0.0452 J-0.0432
G3 X11.4375 Y10.0 I0.0313 J0.0541
G3 X11.3438 Y10.0541 I-0.0625 J0.0
G3 X11.3298 Y10.0432 I0.0313 J-0.0541
G1 F10.0 Z-0.135
G3 F80.0 X11.3438 Y9.9459 I0.0452 J-0.0432
G3 X11.4375 Y10.0 I0.0313 J0.0541
G3 X11.3438 Y10.0541 I-0.0625 J0.0
G3 X11.3298 Y10.0432 I0.0313 J-0.0541
G1 F10.0 Z-0.15
G3 F80.0 X11.3438 Y9.9459 I0.0452 J-0.0432
G3 X11.4375 Y10.0 I0.0313 J0.0541
G3 X11.3438 Y10.0541 I-0.0625 J0.0
G3 X11.3298 Y10.0432 I0.0313 J-0.0541
G0 Z0.125
G0 X11.3739 Y7.4375
G0 Z0.0313
G1 F10.0 Z-0.015
G3 F80.0 X11.3438 Y7.4291 I0.0011 J-0.0625
G3 Y7.3209 I0.0313 J-0.0541
G3 X11.4375 Y7.375 I0.0313 J0.0541
G3 X11.3739 Y7.4375 I-0.0625 J0.0
G1 F10.0 Z-0.03
G3 F80.0 X11.3438 Y7.4291 I0.0011 J-0.0625
G3 Y7.3209 I0.0313 J-0.0541
G3 X11.4375 Y7.375 I0.0313 J0.0541
G3 X11.3739 Y7.4375 I-0.0625 J0.0
G1 F10.0 Z-0.045
G3 F80.0 X11.3438 Y7.4291 I0.0011 J-0.0625
G3 Y7.3209 I0.0313 J-0.0541
G3 X11.4375 Y7.375 I0.0313 J0.0541
G3 X11.3739 Y7.4375 I-0.0625 J0.0
G1 F10.0 Z-0.06
G3 F80.0 X11.3438 Y7.4291 I0.0011 J-0.0625
G3 Y7.3209 I0.0313 J-0.0541
G3 X11.4375 Y7.375 I0.0313 J0.0541
G3 X11.3739 Y7.4375 I-0.0625 J0.0
G1 F10.0 Z-0.075
G3 F80.0 X11.3438 Y7.4291 I0.0011 J-0.0625
G3 Y7.3209 I0.0313 J-0.0541
G3 X11.4375 Y7.375 I0.0313 J0.0541
G3 X11.3739 Y7.4375 I-0.0625 J0.0
G1 F10.0 Z-0.09
G3 F80.0 X11.3438 Y7.4291 I0.0011 J-0.0625
G3 Y7.3209 I0.0313 J-0.0541
G3 X11.4375 Y7.375 I0.0313 J0.0541
G3 X11.3739 Y7.4375 I-0.0625 J0.0
G1 F10.0 Z-0.105
G3 F80.0 X11.3438 Y7.4291 I0.0011 J-0.0625
G3 Y7.3209 I0.0313 J-0.0541
G3 X11.4375 Y7.375 I0.0313 J0.0541
G3 X11.3739 Y7.4375 I-0.0625 J0.0
G1 F10.0 Z-0.12
G3 F80.0 X11.3438 Y7.4291 I0.0011 J-0.0625
G3 Y7.3209 I0.0313 J-0.0541
G3 X11.4375 Y7.375 I0.0313 J0.0541
G3 X11.3739 Y7.4375 I-0.0625 J0.0
G1 F10.0 Z-0.135
G3 F80.0 X11.3438 Y7.4291 I0.0011 J-0.0625
G3 Y7.3209 I0.0313 J-0.0541
G3 X11.4375 Y7.375 I0.0313 J0.0541
G3 X11.3739 Y7.4375 I-0.0625 J0.0
G1 F10.0 Z-0.15
G3 F80.0 X11.3438 Y7.4291 I0.0011 J-0.0625
G3 Y7.3209 I0.0313 J-0.0541
G3 X11.4375 Y7.375 I0.0313 J0.0541
G3 X11.3739 Y7.4375 I-0.0625 J0.0
G0 Z0.125
G0 X11.375 Y4.6875
G0 Z0.0313
G1 F10.0 Z-0.015
G3 F80.0 X11.3438 Y4.6791 I0.0 J-0.0625
G3 Y4.5709 I0.0313 J-0.0541
G3 X11.4375 Y4.625 I0.0313 J0.0541
G3 X11.375 Y4.6875 I-0.0625 J0.0
G1 F10.0 Z-0.03
G3 F80.0 X11.3438 Y4.6791 I0.0 J-0.0625
G3 Y4.5709 I0.0313 J-0.0541
G3 X11.4375 Y4.625 I0.0313 J0.0541
G3 X11.375 Y4.6875 I-0.0625 J0.0
G1 F10.0 Z-0.045
G3 F80.0 X11.3438 Y4.6791 I0.0 J-0.0625
G3 Y4.5709 I0.0313 J-0.0541
G3 X11.4375 Y4.625 I0.0313 J0.0541
G3 X11.375 Y4.6875 I-0.0625 J0.0
G1 F10.0 Z-0.06
G3 F80.0 X11.3438 Y4.6791 I0.0 J-0.0625
G3 Y4.5709 I0.0313 J-0.0541
G3 X11.4375 Y4.625 I0.0313 J0.0541
G3 X11.375 Y4.6875 I-0.0625 J0.0
G1 F10.0 Z-0.075
G3 F80.0 X11.3438 Y4.6791 I0.0 J-0.0625
G3 Y4.5709 I0.0313 J-0.0541
G3 X11.4375 Y4.625 I0.0313 J0.0541
G3 X11.375 Y4.6875 I-0.0625 J0.0
G1 F10.0 Z-0.09
G3 F80.0 X11.3438 Y4.6791 I0.0 J-0.0625
G3 Y4.5709 I0.0313 J-0.0541
G3 X11.4375 Y4.625 I0.0313 J0.0541
G3 X11.375 Y4.6875 I-0.0625 J0.0
G1 F10.0 Z-0.105
G3 F80.0 X11.3438 Y4.6791 I0.0 J-0.0625
G3 Y4.5709 I0.0313 J-0.0541
G3 X11.4375 Y4.625 I0.0313 J0.0541
G3 X11.375 Y4.6875 I-0.0625 J0.0
G1 F10.0 Z-0.12
G3 F80.0 X11.3438 Y4.6791 I0.0 J-0.0625
G3 Y4.5709 I0.0313 J-0.0541
G3 X11.4375 Y4.625 I0.0313 J0.0541
G3 X11.375 Y4.6875 I-0.0625 J0.0
G1 F10.0 Z-0.135
G3 F80.0 X11.3438 Y4.6791 I0.0 J-0.0625
G3 Y4.5709 I0.0313 J-0.0541
G3 X11.4375 Y4.625 I0.0313 J0.0541
G3 X11.375 Y4.6875 I-0.0625 J0.0
G1 F10.0 Z-0.15
G3 F80.0 X11.3438 Y4.6791 I0.0 J-0.0625
G3 Y4.5709 I0.0313 J-0.0541
G3 X11.4375 Y4.625 I0.0313 J0.0541
G3 X11.375 Y4.6875 I-0.0625 J0.0
G0 Z0.125
G0 Y2.0625
G0 Z0.0313
G1 F10.0 Z-0.015
G3 F80.0 X11.3438 Y2.0541 I0.0 J-0.0625
G3 Y1.9459 I0.0313 J-0.0541
G3 X11.4375 Y2.0 I0.0313 J0.0541
G3 X11.375 Y2.0625 I-0.0625 J0.0
G1 F10.0 Z-0.03
G3 F80.0 X11.3438 Y2.0541 I0.0 J-0.0625
G3 Y1.9459 I0.0313 J-0.0541
G3 X11.4375 Y2.0 I0.0313 J0.0541
G3 X11.375 Y2.0625 I-0.0625 J0.0
G1 F10.0 Z-0.045
G3 F80.0 X11.3438 Y2.0541 I0.0 J-0.0625
G3 Y1.9459 I0.0313 J-0.0541
G3 X11.4375 Y2.0 I0.0313 J0.0541
G3 X11.375 Y2.0625 I-0.0625 J0.0
G1 F10.0 Z-0.06
G3 F80.0 X11.3438 Y2.0541 I0.0 J-0.0625
G3 Y1.9459 I0.0313 J-0.0541
G3 X11.4375 Y2.0 I0.0313 J0.0541
G3 X11.375 Y2.0625 I-0.0625 J0.0
G1 F10.0 Z-0.075
G3 F80.0 X11.3438 Y2.0541 I0.0 J-0.0625
G3 Y1.9459 I0.0313 J-0.0541
G3 X11.4375 Y2.0 I0.0313 J0.0541
G3 X11.375 Y2.0625 I-0.0625 J0.0
G1 F10.0 Z-0.09
G3 F80.0 X11.3438 Y2.0541 I0.0 J-0.0625
G3 Y1.9459 I0.0313 J-0.0541
G3 X11.4375 Y2.0 I0.0313 J0.0541
G3 X11.375 Y2.0625 I-0.0625 J0.0
G1 F10.0 Z-0.105
G3 F80.0 X11.3438 Y2.0541 I0.0 J-0.0625
G3 Y1.9459 I0.0313 J-0.0541
G3 X11.4375 Y2.0 I0.0313 J0.0541
G3 X11.375 Y2.0625 I-0.0625 J0.0
G1 F10.0 Z-0.12
G3 F80.0 X11.3438 Y2.0541 I0.0 J-0.0625
G3 Y1.9459 I0.0313 J-0.0541
G3 X11.4375 Y2.0 I0.0313 J0.0541
G3 X11.375 Y2.0625 I-0.0625 J0.0
G1 F10.0 Z-0.135
G3 F80.0 X11.3438 Y2.0541 I0.0 J-0.0625
G3 Y1.9459 I0.0313 J-0.0541
G3 X11.4375 Y2.0 I0.0313 J0.0541
G3 X11.375 Y2.0625 I-0.0625 J0.0
G1 F10.0 Z-0.15
G3 F80.0 X11.3438 Y2.0541 I0.0 J-0.0625
G3 Y1.9459 I0.0313 J-0.0541
G3 X11.4375 Y2.0 I0.0313 J0.0541
G3 X11.375 Y2.0625 I-0.0625 J0.0
G0 Z0.125
G0 X10.0432 Y0.6702
G0 Z0.0313
G1 F10.0 Z-0.015
G3 F80.0 X9.9688 Y0.6791 I-0.0432 J-0.0452
G3 Y0.5709 I0.0313 J-0.0541
G3 X10.0625 Y0.625 I0.0313 J0.0541
G3 X10.0432 Y0.6702 I-0.0625 J0.0
G1 F10.0 Z-0.03
G3 F80.0 X9.9688 Y0.6791 I-0.0432 J-0.0452
G3 Y0.5709 I0.0313 J-0.0541
G3 X10.0625 Y0.625 I0.0313 J0.0541
G3 X10.0432 Y0.6702 I-0.0625 J0.0
G1 F10.0 Z-0.045
G3 F80.0 X9.9688 Y0.6791 I-0.0432 J-0.0452
G3 Y0.5709 I0.0313 J-0.0541
G3 X10.0625 Y0.625 I0.0313 J0.0541
G3 X10.0432 Y0.6702 I-0.0625 J0.0
G1 F10.0 Z-0.06
G3 F80.0 X9.9688 Y0.6791 I-0.0432 J-0.0452
G3 Y0.5709 I0.0313 J-0.0541
G3 X10.0625 Y0.625 I0.0313 J0.0541
G3 X10.0432 Y0.6702 I-0.0625 J0.0
G1 F10.0 Z-0.075
G3 F80.0 X9.9688 Y0.6791 I-0.0432 J-0.0452
G3 Y0.5709 I0.0313 J-0.0541
G3 X10.0625 Y0.625 I0.0313 J0.0541
G3 X10.0432 Y0.6702 I-0.0625 J0.0
G1 F10.0 Z-0.09
G3 F80.0 X9.9688 Y0.6791 I-0.0432 J-0.0452
G3 Y0.5709 I0.0313 J-0.0541
G3 X10.0625 Y0.625 I0.0313 J0.0541
G3 X10.0432 Y0.6702 I-0.0625 J0.0
G1 F10.0 Z-0.105
G3 F80.0 X9.9688 Y0.6791 I-0.0432 J-0.0452
G3 Y0.5709 I0.0313 J-0.0541
G3 X10.0625 Y0.625 I0.0313 J0.0541
G3 X10.0432 Y0.6702 I-0.0625 J0.0
G1 F10.0 Z-0.12
G3 F80.0 X9.9688 Y0.6791 I-0.0432 J-0.0452
G3 Y0.5709 I0.0313 J-0.0541
G3 X10.0625 Y0.625 I0.0313 J0.0541
G3 X10.0432 Y0.6702 I-0.0625 J0.0
G1 F10.0 Z-0.135
G3 F80.0 X9.9688 Y0.6791 I-0.0432 J-0.0452
G3 Y0.5709 I0.0313 J-0.0541
G3 X10.0625 Y0.625 I0.0313 J0.0541
G3 X10.0432 Y0.6702 I-0.0625 J0.0
G1 F10.0 Z-0.15
G3 F80.0 X9.9688 Y0.6791 I-0.0432 J-0.0452
G3 Y0.5709 I0.0313 J-0.0541
G3 X10.0625 Y0.625 I0.0313 J0.0541
G3 X10.0432 Y0.6702 I-0.0625 J0.0
G0 Z0.125
G0 X7.4375 Y0.6261
G0 Z0.0313
G1 F10.0 Z-0.015
G3 F80.0 X7.3438 Y0.6791 I-0.0625 J-0.0011
G3 Y0.5709 I0.0313 J-0.0541
G3 X7.4375 Y0.625 I0.0313 J0.0541
G3 Y0.6261 I-0.0625 J0.0
G1 F10.0 Z-0.03
G3 F80.0 X7.3438 Y0.6791 I-0.0625 J-0.0011
G3 Y0.5709 I0.0313 J-0.0541
G3 X7.4375 Y0.625 I0.0313 J0.0541
G3 Y0.6261 I-0.0625 J0.0
G1 F10.0 Z-0.045
G3 F80.0 X7.3438 Y0.6791 I-0.0625 J-0.0011
G3 Y0.5709 I0.0313 J-0.0541
G3 X7.4375 Y0.625 I0.0313 J0.0541
G3 Y0.6261 I-0.0625 J0.0
G1 F10.0 Z-0.06
G3 F80.0 X7.3438 Y0.6791 I-0.0625 J-0.0011
G3 Y0.5709 I0.0313 J-0.0541
G3 X7.4375 Y0.625 I0.0313 J0.0541
G3 Y0.6261 I-0.0625 J0.0
G1 F10.0 Z-0.075
G3 F80.0 X7.3438 Y0.6791 I-0.0625 J-0.0011
G3 Y0.5709 I0.0313 J-0.0541
G3 X7.4375 Y0.625 I0.0313 J0.0541
G3 Y0.6261 I-0.0625 J0.0
G1 F10.0 Z-0.09
G3 F80.0 X7.3438 Y0.6791 I-0.0625 J-0.0011
G3 Y0.5709 I0.0313 J-0.0541
G3 X7.4375 Y0.625 I0.0313 J0.0541
G3 Y0.6261 I-0.0625 J0.0
G1 F10.0 Z-0.105
G3 F80.0 X7.3438 Y0.6791 I-0.0625 J-0.0011
G3 Y0.5709 I0.0313 J-0.0541
G3 X7.4375 Y0.625 I0.0313 J0.0541
G3 Y0.6261 I-0.0625 J0.0
G1 F10.0 Z-0.12
G3 F80.0 X7.3438 Y0.6791 I-0.0625 J-0.0011
G3 Y0.5709 I0.0313 J-0.0541
G3 X7.4375 Y0.625 I0.0313 J0.0541
G3 Y0.6261 I-0.0625 J0.0
G1 F10.0 Z-0.135
G3 F80.0 X7.3438 Y0.6791 I-0.0625 J-0.0011
G3 Y0.5709 I0.0313 J-0.0541
G3 X7.4375 Y0.625 I0.0313 J0.0541
G3 Y0.6261 I-0.0625 J0.0
G1 F10.0 Z-0.15
G3 F80.0 X7.3438 Y0.6791 I-0.0625 J-0.0011
G3 Y0.5709 I0.0313 J-0.0541
G3 X7.4375 Y0.625 I0.0313 J0.0541
G3 Y0.6261 I-0.0625 J0.0
G0 Z0.125
G0 X4.6875 Y0.625
G0 Z0.0313
G1 F10.0 Z-0.015
G3 F80.0 X4.5938 Y0.6791 I-0.0625 J0.0
G3 Y0.5709 I0.0313 J-0.0541
G3 X4.6875 Y0.625 I0.0313 J0.0541
G1 F10.0 Z-0.03
G3 F80.0 X4.5938 Y0.6791 I-0.0625 J0.0
G3 Y0.5709 I0.0313 J-0.0541
G3 X4.6875 Y0.625 I0.0313 J0.0541
G1 F10.0 Z-0.045
G3 F80.0 X4.5938 Y0.6791 I-0.0625 J0.0
G3 Y0.5709 I0.0313 J-0.0541
G3 X4.6875 Y0.625 I0.0313 J0.0541
G1 F10.0 Z-0.06
G3 F80.0 X4.5938 Y0.6791 I-0.0625 J0.0
G3 Y0.5709 I0.0313 J-0.0541
G3 X4.6875 Y0.625 I0.0313 J0.0541
G1 F10.0 Z-0.075
G3 F80.0 X4.5938 Y0.6791 I-0.0625 J0.0
G3 Y0.5709 I0.0313 J-0.0541
G3 X4.6875 Y0.625 I0.0313 J0.0541
G1 F10.0 Z-0.09
G3 F80.0 X4.5938 Y0.6791 I-0.0625 J0.0
G3 Y0.5709 I0.0313 J-0.0541
G3 X4.6875 Y0.625 I0.0313 J0.0541
G1 F10.0 Z-0.105
G3 F80.0 X4.5938 Y0.6791 I-0.0625 J0.0
G3 Y0.5709 I0.0313 J-0.0541
G3 X4.6875 Y0.625 I0.0313 J0.0541
G1 F10.0 Z-0.12
G3 F80.0 X4.5938 Y0.6791 I-0.0625 J0.0
G3 Y0.5709 I0.0313 J-0.0541
G3 X4.6875 Y0.625 I0.0313 J0.0541
G1 F10.0 Z-0.135
G3 F80.0 X4.5938 Y0.6791 I-0.0625 J0.0
G3 Y0.5709 I0.0313 J-0.0541
G3 X4.6875 Y0.625 I0.0313 J0.0541
G1 F10.0 Z-0.15
G3 F80.0 X4.5938 Y0.6791 I-0.0625 J0.0
G3 Y0.5709 I0.0313 J-0.0541
G3 X4.6875 Y0.625 I0.0313 J0.0541
( Profile6 )
S1000
G0 Z0.125
G0 X1.0625 Y1.0625
G0 Z0.0313
G1 F10.0 Z-0.015
G1 F80.0 X10.9375
G1 Y10.9375
G1 X1.0625
G1 Y1.0625
G1 F10.0 Z-0.03
G1 F80.0 X10.9375
G1 Y10.9375
G1 X1.0625
G1 Y1.0625
G1 F10.0 Z-0.045
G1 F80.0 X10.9375
G1 Y10.9375
G1 X1.0625
G1 Y1.0625
G1 F10.0 Z-0.06
G1 F80.0 X10.9375
G1 Y10.9375
G1 X1.0625
G1 Y1.0625
G1 F10.0 Z-0.075
G1 F80.0 X10.9375
G1 Y10.9375
G1 X1.0625
G1 Y1.0625
G1 F10.0 Z-0.09
G1 F80.0 X10.9375
G1 Y10.9375
G1 X1.0625
G1 Y1.0625
G1 F10.0 Z-0.105
G1 F80.0 X10.9375
G1 Y10.9375
G1 X1.0625
G1 Y1.0625
G1 F10.0 Z-0.12
G1 F80.0 X10.9375
G1 Y10.9375
G1 X1.0625
G1 Y1.0625
G1 F10.0 Z-0.135
G1 F80.0 X10.9375
G1 Y10.9375
G1 X1.0625
G1 Y1.0625
G1 F10.0 Z-0.15
G1 F80.0 X10.9375
G1 Y10.9375
G1 X1.0625
G1 Y1.0625
( Profile1 )
S1000
G0 Z0.125
G0 X-0.0625 Y0.0
G0 Z0.0313
G1 F10.0 Z-0.015
G1 F80.0 Y12.0
G2 X0.0 Y12.0625 I0.0625 J0.0
G1 X12.0
G2 X12.0625 Y12.0 I0.0 J-0.0625
G1 Y0.0
G2 X12.0 Y-0.0625 I-0.0625 J0.0
G1 X0.0
G2 X-0.0625 Y0.0 I0.0 J0.0625
G1 F10.0 Z-0.03
G1 F80.0 Y12.0
G2 X0.0 Y12.0625 I0.0625 J0.0
G1 X12.0
G2 X12.0625 Y12.0 I0.0 J-0.0625
G1 Y0.0
G2 X12.0 Y-0.0625 I-0.0625 J0.0
G1 X0.0
G2 X-0.0625 Y0.0 I0.0 J0.0625
G1 F10.0 Z-0.045
G1 F80.0 Y12.0
G2 X0.0 Y12.0625 I0.0625 J0.0
G1 X12.0
G2 X12.0625 Y12.0 I0.0 J-0.0625
G1 Y0.0
G2 X12.0 Y-0.0625 I-0.0625 J0.0
G1 X0.0
G2 X-0.0625 Y0.0 I0.0 J0.0625
G1 F10.0 Z-0.06
G1 F80.0 Y12.0
G2 X0.0 Y12.0625 I0.0625 J0.0
G1 X12.0
G2 X12.0625 Y12.0 I0.0 J-0.0625
G1 Y0.0
G2 X12.0 Y-0.0625 I-0.0625 J0.0
G1 X0.0
G2 X-0.0625 Y0.0 I0.0 J0.0625
G1 F10.0 Z-0.075
G1 F80.0 Y12.0
G2 X0.0 Y12.0625 I0.0625 J0.0
G1 X12.0
G2 X12.0625 Y12.0 I0.0 J-0.0625
G1 Y0.0
G2 X12.0 Y-0.0625 I-0.0625 J0.0
G1 X0.0
G2 X-0.0625 Y0.0 I0.0 J0.0625
G1 F10.0 Z-0.09
G1 F80.0 Y12.0
G2 X0.0 Y12.0625 I0.0625 J0.0
G1 X12.0
G2 X12.0625 Y12.0 I0.0 J-0.0625
G1 Y0.0
G2 X12.0 Y-0.0625 I-0.0625 J0.0
G1 X0.0
G2 X-0.0625 Y0.0 I0.0 J0.0625
G1 F10.0 Z-0.105
G1 F80.0 Y12.0
G2 X0.0 Y12.0625 I0.0625 J0.0
G1 X12.0
G2 X12.0625 Y12.0 I0.0 J-0.0625
G1 Y0.0
G2 X12.0 Y-0.0625 I-0.0625 J0.0
G1 X0.0
G2 X-0.0625 Y0.0 I0.0 J0.0625
G1 F10.0 Z-0.12
G1 F80.0 Y12.0
G2 X0.0 Y12.0625 I0.0625 J0.0
G1 X12.0
G2 X12.0625 Y12.0 I0.0 J-0.0625
G1 Y0.0
G2 X12.0 Y-0.0625 I-0.0625 J0.0
G1 X0.0
G2 X-0.0625 Y0.0 I0.0 J0.0625
G1 F10.0 Z-0.135
G1 F80.0 Y12.0
G2 X0.0 Y12.0625 I0.0625 J0.0
G1 X12.0
G2 X12.0625 Y12.0 I0.0 J-0.0625
G1 Y0.0
G2 X12.0 Y-0.0625 I-0.0625 J0.0
G1 X0.0
G2 X-0.0625 Y0.0 I0.0 J0.0625
G1 F10.0 Z-0.15
G1 F80.0 Y12.0
G2 X0.0 Y12.0625 I0.0625 J0.0
G1 X12.0
G2 X12.0625 Y12.0 I0.0 J-0.0625
G1 Y0.0
G2 X12.0 Y-0.0625 I-0.0625 J0.0
G1 X0.0
G2 X-0.0625 Y0.0 I0.0 J0.0625
( Engrave1 )
S1000
G0 Z0.125
G0 X0.875 Y0.875
G0 Z0.0313
G1 F10.0 Z-0.015
G1 F80.0 X11.125
G1 Y11.125
G1 X0.875
G1 Y0.875
G1 F10.0 Z-0.03
G1 F80.0 X11.125
G1 Y11.125
G1 X0.875
G1 Y0.875
G1 F10.0 Z-0.045
G1 F80.0 X11.125
G1 Y11.125
G1 X0.875
G1 Y0.875
G1 F10.0 Z-0.06
G1 F80.0 X11.125
G1 Y11.125
G1 X0.875
G1 Y0.875
G1 F10.0 Z-0.0625
G1 F80.0 X11.125
G1 Y11.125
G1 X0.875
G1 Y0.875
G0 Z0.125
M5
M30
